X:1
T:James Gibb editions
T:Preces & Responses - Smith
T:#
%%score [ 1 { 2 | 3 } 4 5 ]
L:1/8
Q:1/4=200
M:8/4
K:Ab
V:1 treble nm="Soprano"
V:2 treble nm="Alto I"
V:3 treble 
V:4 treble-8 nm="Tenor"
V:5 bass nm="Bass"
V:1
"^Preces & Reponses""^William Smith\n(1603-45)" x16 || c4 c4 | c8 A2 (B2 c4) | d6 d2 c8 || %4
w: |And our|mouth shall shew *|forth thy praise.|
[Q:1/4=160] x16 ||[Q:1/4=200] z4 e4 c4 z2 c2 | f4 e4 (e6 d2) | c8 || z4 c6 c2 c4 | %9
w: |O Lord, make|haste to help *|us.|Glo- ry be|
 e4 d4 c4 =A2 A2 | B4 d4 c4 c4 | B2 A2 A8 G4 | A8 || z4 A6 A2 A4 | e4 d2 c2 B4 d4 | c8 B4 _d4 | %16
w: to the Fa- ther, and|to the Son: and|to the Ho- ly|Ghost;|As it was|in the be- gin- ning,|is now, and|
 c2 B2 c4 B4 e4 | d2 c2 B4 c4 c4 | B2 A2 A8 G4 | A8 z4 f4- | f4 e6 (f2 d4- | d4 c2 B2) c8 || %22
w: e- ver shall be: and|e- ver shall be: world|with- out end. A-|men. Praise|* ye the *|* * * Lord.|
[M:8/4] z16 | z8 ||[M:8/4] x16 || c8 | B12 B4 | A4 A12 || x16 || c12 c4 | e4 A2 A2 B8 | c8 || %32
w: |||And|with thy|spi- rit.||Lord, have|mer- cy u- pon|us,|
 c12 c4 | B4 d2 d2 c8 | B8 || d12 c4 | B4 A4 c4 B4 | A8 || z8 | A16 | A8 A8 |] x16 | x8 || z4 c4 | %44
w: Christ, have|mer- cy u- pon|us,|Lord, have|mer- cy u- pon|us.||which~art...from~evil.|A- men.|||And|
 B6 A2 G4 e4 | d4 B4 c8 | x16 | x8 || c4 c6 c2 c2 c2 | d8 c8 | d6 d2 c4 B4 | (B4 =A4) B8 | x16 | %53
w: grant us thy sal-|va- ti- on.|||And mer- ci- ful- ly|hear us|when we call u-|pon * thee.||
 x8 || z4 B4 | G6 A2 B4 c4 | B2 E2 (e6 d2 B4) | c8 || x16 | x8 || z4 c4 | c8 B4 A4 | A4 G4 A8 || %63
w: |And|make thy cho- sen|peo- ple joy\- * *|ful.|||And|bless thine in-|he- ri- tance.|
[M:8/4] z16 | z8 ||[M:8/4] z4 c4 | f6 e2 d4 d4 | c2 c2 c2 d4 c2 B4 | c8 z4 c4 | d6 d2 c4 c4 | B8 | %71
w: ||Be-|cause there is none|o- ther that fight- eth for|us, but|on- ly thou, O|God.|
 x16 | x8 || z4 c4 c8 | B4 A4 G6 A2 | B2 E2 (e6 d2 B4) | c8 | z16 || c8 d8 || d8 c8 || %80
w: ||And take|not thy ho- ly|Spi- rit from * *|us.||A- men.|A- men.|
 (d2 e2 f8 e2 d2 | c2 d2 e8 d2 c2 | B4) A4 B8 | c16 |] %84
w: A\- * * * *||* men, A-|men.|
V:2
 x16 || A4 A4 | A4 A8 A4 | A4 A4 A8 || x16 || A4 A8 A4 | A4 A8 G4 | A8 || z4 A6 A2 A4 | %9
w: |And our|mouth shall shew|forth thy praise.||o Lord, make|haste to help|us.|Glo- ry be|
 A4 F4 F4 F2 F2 | F4 F4 F4 F4 | F4 F4 E6 D2 | C8 || z4 E6 E2 F4 | A4 A2 A2 G2 (A2 B4- | %15
w: to the Fa- ther, and|to the Son: and|to the Ho- ly|Ghost;|As it was|in the be- gin- ning *|
 B4) =A4 B4 B4 | A2 G2 A4 G4 E4 | F4 B4 A4 A4- | A2 G2 F4 z4 E4 | E8 A6 (_G2 | %20
w: * is now, and|e- ver shall be: world|with- out end. with\-|* out end. A-|men. Praise ye|
 F2 _G2 A2) (G2 F4) F4- | F4 E4 E8 ||[M:8/4] z16 | z8 ||[M:8/4] x16 || E8 | E12 E4 | E4 E12 || %28
w: * * * the * Lord,|* the Lord.||||And|with thy|spi- rit.|
 x16 || A12 A4 | B4 E2 F2 (G2 A4 G2) | A8 || E12 E4 | E4 D2 E2 (F2 E2 C4) | =D8 || %35
w: |Lord, have|mer- cy u- pon * *|us|Christ, have|mer- cy u- pon * *|us,|
 !courtesy!_D12 E4 | F4 C2 D2 (E6 D2) | C8 || z8 | A16 | F8 E8 |] x16 | x8 || z4 E4 | E6 F2 G4 E4 | %45
w: Lord, have|mer- cy u- pon *|us.||which~art...from~evil.|A- men.|||And|grant us thy sal-|
 F4 (E2 D2) C8 | x16 | x8 || A4 A6 A2 E2 E2 | (D2 E2 F2 G2) A8 | F6 G2 A4 (D2 E2) | F8 F8 | x16 | %53
w: va- ti\- * on.|||And mer- ci- ful- ly|hear * * * us|when we call u\- *|pon thee.||
 x8 || z4 E4 | B6 A2 G4 E4 | E4 E4 (E6 D2) | C8 || x16 | x8 || z4 E4 | E8 E4 A,4 | B,6 B,2 E8 || %63
w: |And|make thy cho- sen|peo- ple joy\- *|ful.|||And|bless thine in-|he- ri- tance.|
[M:8/4] z16 | z8 ||[M:8/4] z4 E4 | A6 _G2 F4 F4 | E2 E2 F2 F4 F2 B4 | =A8 z4 F4 | F4 F4 F6 E2 | %70
w: ||Be-|cause there is none|o- ther that fight- eth for|us, but|on- ly thou, O|
 =D8 | x16 | x8 || z4 E4 E8 | E4 E4 E4 (B2 A2) | G2 E2 (A8 G4) | A8 | z16 || E8 F8 || F8 A8 || %80
w: God.|||And take|not thy ho- ly *|Spi- rit from *|us.||A- men.|A- men.|
 (F6 E2 D4 C2 B,2 | A,2 B,2 C2 D2) E4 (B2 A2 | G2 E2 A8 G4) | A16 |] %84
w: A\- * * * *|* * * * men, A\- *||men.|
V:3
 x16 || E4 E4 | E8 E4 E4 | F6 F2 E8 || x16 || E4 E8 E4 | D4 E4 E8 | E8 || z4 E6 E2 E4 | %9
w: |And our|mouth shall shew|forth thy praise.||O Lord, make|haste to help|us|Glo- ry be|
 C4 (D2 B,2) C4 C2 C2 | D2 (E2 F4) F4 C4 | D6 C2 B,4 B,4 | C8 || z4 C6 C2 D4 | E4 E2 E2 E4 F4 | %15
w: to the * Fa- ther, and|to the * Son: and|to the Ho- ly|Ghost;|As it was|in the be- gin- ning,|
 C8 =D4 B,4 | C2 C2 E4 E4 _G4 | F2 (E2 F2) (!courtesy!=G2 A4) C4 | D6 D2 C4 B,4 | A,8 C4 D4- | %20
w: is now, and|e- ver shall be: world|with- out * end, * world|with- out end. A-|men. Praise ye|
 D4 (E4 F6 G2) | A16 ||[M:8/4] x16 | x8 ||[M:8/4] x16 || A8 | A8 G8 | A4 A12 || x16 || E12 E4 | %30
w: * the * *|Lord.||||And|with thy|spi- rit.||Lord, have|
 E4 C2 C2 E8 | E8 || A12 A4 | G4 F2 G2 (A2 G2 F4) | F8 || B12 A4 | F2 G2 A4 (A4 G4) | E8 || z8 | %39
w: mer- cy u- pon|us,|Christ, have|mer- cy u- pon * *|us,|Lord, have|mer- cy u- pon *|us.||
 A16 | D8 C8 |] x16 | x8 || z4 A4 | G6 F2 E4 A4 | F4 G4 A8 | x16 | x8 || E4 E6 E2 A2 A2 | F8 E8 | %50
w: which~art...from~evil.|A- men.|||And|grant us thy sal-|va- ti- on.|||And mer- ci- ful- ly|hear us|
 D4 D4 F4 F4 | (C4 F2 E2) =D8 | x16 | x8 || z4 G4 | E4 E4 E4 E4 | G4 A8 G4 | A8 || x16 | x8 || %60
w: when we call u-|pon * * thee.|||And|make thy cho- sen|peo- ple joy-|ful.|||
 z4 A4 | A8 G4 A4 | F4 E4 C8 ||[M:8/4] x16 | x8 ||[M:8/4] z4 A4 | A4 A4 A4 A4 | A2 A2 A2 B4 F2 F4 | %68
w: And|bless thine in-|he- ri- tance.|||Be-|cause there is none|o- ther that fight- eth for|
 F8 z4 _A4 | A4 B4 (A2 G2) F4 | F8 | x16 | x8 || z4 A4 A8 | G4 E4 E4 E4 | E4 C4 (B,4 E4) | E8 | %77
w: us, but|on- ly thou, * O|God.|||And take|not thy ho- ly|Spi- rit from *|us.|
 z16 || A8 F8 || D8 E8 || (A,4 D8 E4) | E4 (A2 GF E4 F4) | B,4 (C4 B,4 E4) | E16 |] %84
w: |A- men.|A- men.|A\- * *|men, A\- * * * *|men. A\- * *|men.|
V:4
 x16 || A4 A4 | A8 e2 (d2 c2) (B2 | A6) B2 c8 || x16 || e4 c8 A4 | F4 A4 B8 | A8 || z4 A6 A2 A4 | %9
w: |And our|mouth shall shew * forth|* thy praise.||O Lord, make|haste to help|us|Glo- ry be|
 c4 B4 =A4 A2 A2 | F4 B4 =A4 _A4 | F2 (G2 A4) G2 (A2 B4) | A8 || z4 A6 A2 A4 | A4 A2 A2 B4 B4 | %15
w: to the Fa- ther, and|to the Son: and|to the * Ho- ly *|Ghost;|As it was|in the be- gin- ning,|
 F8 F8 | A8 B2 B2 B4 | B4 d4 c2 (B2 c4) | F2 (G2 A4 e6 d2) | c8 A8 | A12 A4 | A16 ||[M:8/4] z16 | %23
w: is now,|and e- ver shall|be: world with- out *|end. A\- * * *|men. Praise|ye the|Lord.||
 z8 ||[M:8/4][K:treble-8] x16 || A8 | B12 B4 | c4 c12 || x16 || c12 c4 | B4 A2 c2 B8 | A8 || %32
w: ||And|with thy|spi- rit.||Lord, have|mer- cy u- pon|us,|
 A12 E4 | G2 A2 B8 =A4 | B8 || f12 e4 | d4 A4 e4 E4 | E8 || z8 | A16 | A8 A8 |] x16 | x8 || z4 A4 | %44
w: Christ, have|mer- cy u- pon|us,|Lord, have|mer- cy u- pon|us.||which~art...from~evil.|A- men.|||And|
 B4 E4 G4 c4 | B6 B2 A8 | x16 | x8 || A4 A6 B2 c2 A2 | A8 A8 | F4 B4 A4 d4 | c8 B8 | x16 | x8 || %54
w: grant us thy sal-|va- ti- on.|||And mer- ci- ful- ly|hear us|when we call u-|pon thee.|||
 z4 B4 | B4 E4 e4 A4 | B4 c4 B8 | A8 || x16 | x8 || z4 A4 | c8 G4 c4 | B6 B2 A8 ||[M:8/4] z16 | %64
w: And|make thy cho- sen|peo- ple joy-|ful.|||And|bless thine in-|he- ri- tance.||
 z8 ||[M:8/4][K:treble-8] z4 c4 | d4 A4 d6 d2 | A2 c2 c2 B4 c2 d4 | c8 z4 A4 | d4 B4 B4 =A4 | B8 | %71
w: |Be-|cause there is none|o- ther that fight- eth for|us, but|on- ly thou, O|God.|
 x16 | x8 || z4 A4 A8 | B4 c4 B4 E4 | B4 A4 B8 | A8 | z16 || A8 A8 || A8 A8 || (F6 G2 A4 B4) | %81
w: ||And take|not thy ho- ly|Spi- rit from|us||A- men.|A- men.|A\- * * *|
 c4 (A8 F4) | B4 (e6 d2 B4) | A16 |] %84
w: men, A\- *|men, A\- * *|men.|
V:5
 A,16 || A,,4 A,,4 | A,,8 A,,4 A,4 | F,4 D,4 A,,8 || F,2 A,2 A,2 B,2 A,2 A,2 A,4 || A,,4 A,,8 A,4 | %6
w: O~Lord,~open~thou~our~lips:|And our|mouth shall shew|forth thy praise.|O God, make speed to save us:|O Lord, make|
 D,4 A,,4 E,8 | A,,8 || z4 A,,6 A,,2 A,,4 | A,,4 B,,4 F,4 F,2 F,2 | D,4 B,,4 F,4 F,4 | %11
w: haste to help|us.|Glo- ry be|to the Fa- ther, and|to the Son: and|
 D,4 D,4 E,4 E,4 | A,,8 || z4 A,,6 A,,2 D,4 | C,4 B,,2 A,,2 E,4 B,,4 | F,8 B,,8 | %16
w: to the Ho- ly|Ghost;|As it was|in the be- gin- ning,|is now,|
 z4 A,,4 E,2 E,2 E,4 | B,,4 B,,4 F,2 (G,2 A,4) | D,2 (E,2 F,4 E,8) | A,,4 (A,6 G,2 F,2 E,2) | %20
w: and e- ver shall|be, world with- out *|end. A\- * *|men. Praise * * *|
 (D,4 C,4) D,8 | A,,16 || A8 A8 | A8 || A,16 || A,8 | E,12 E,4 | A,,4 A,,12 || A,16 || A,12 A,4 | %30
w: ye * the|Lord.|I~believe~in~God,~the~Father~Almighty,...life~everlasting. A-|men.|The~Lord~be~with~you.|And|with thy|spi- rit.|Let~us~pray.|Lord, have|
 G,4 A,2 A,2 E,8 | A,,8 || A,,12 A,,4 | E,4 B,,2 B,,2 F,8 | B,,8 || B,,12 C,4 | D,2 E,2 F,4 E,8 | %37
w: mer- cy u- pon|us,|Christ, have|mer- cy u- pon|us,|Lord, have|mer- cy u- pon|
 A,,8 || A,8 | A,16 | D,8 A,,8 |] A,16 | F,4 G,4 || z4 A,4 | E,6 E,2 E,4 C,4 | D,4 E,4 A,,8 | %46
w: us.|Our~Father,|which~art...from~evil.|A- men.|O~Lord,~shew~thy~mercy~up-|on us:|And|grant us thy sal-|va- ti- on.|
 A,16 | F,4 G,4 || A,,4 A,6 A,2 A,2 A,2 | D,8 A,,8 | B,,6 B,,2 F,4 F,4 | F,8 B,,8 | A,16 | %53
w: O~Lord,~save|the Queen:|And mer- ci- ful- ly|hear us|when we call u-|pon thee.|Endue~thy~ministers~with~right-|
 F,4 F,4 || z4 E,4 | E,6 F,2 G,4 A,4 | E,4 C,4 E,8 | A,,8 || A,16 | A,4 F,4 || z4 A,4 | %61
w: eous- ness:|And|make thy cho- sen|peo- ple joy-|ful.|O~Lord,~save~thy|peo- ple:|And|
 A,8 E,4 C,4 | D,4 E,4 A,,8 || A,16 | F,4 G,4 || z4 A,4 | D,6 E,2 F,4 D,4 | %67
w: bless thine in-|he- ri- tance.|Give~peace~in~our~time,|O Lord:|Be-|cause there is none|
 A,2 A,2 F,2 B,4 =A,2 B,4 | F,8 z4 F,4 | D,6 E,2 F,4 F,4 | B,,8 | A,16 | F,4 G,4 || z4 A,4 A,8 | %74
w: o- ther that fight- eth for|us, but|on- ly thou, O|God.|O~God,~make~clean~our~hearts~with-|in us:|And take|
 E,4 A,,4 E,6 F,2 | G,4 A,4 E,8 | A,,8 | A,16 || A,,8 D,8 || D,8 A,,8 || (D,6 E,2 F,4 G,4) | %81
w: not thy Ho- ly|Spi- rit from|us.|Let~us~pray.|A- men.|A- men.|A\- * * *|
 A,4 (A,,2 B,,2 C,4 D,4 | E,16) | A,,16 |] %84
w: men, A\- * * *||men.|

